X:1
T:052 - Jesus Glorioso
T:Letra: Manuel Avelino de Souza (1886-1962)
T:Música: Charles Hutchison Gabriel (1856-1932)
L:1/8
Q:1/4=80
M:2/4
K:C
V:1
G | "C"c3(B/A/) | G3(^F/G/) | "(D7/C)"AB AB | "(C)"A2 G(G/A/) | "G"B3(B/c/) | d3(D/E/) | "G7"FE FG |A^G AB | "C"c3(B/A/) | G3(^F/G/) | "(D7/C)"AB AB | "(C)"A2 G(G/A/) | "G"B3(B/c/) | d3(d/e/) | "D7"dc BA | "G"G || [V:1 bass] G, A,B, | "C"C3(B,/A,/) | G,3(^F,/G,/) | "(D7/C)"A,B, A,B, | "(C)"A,2 G,G, | "D7"^F,3(E,/F,/) | D,3^F, | A,C B,A, | "G"G, || [V:1 treble] G AB | "C"c2 "F"c2 | "C"c3c | ec "F"Ac | "C"G3G | "G"G3G | G3G | G3G | "G7"G3G | G2 G2 | Hg3G | "C"c2 "F"c2 | "C"c3d |ec "F"Ac | "C"G3 G | "Am"c2 c2 | "Ab75-"c3c | "C/G"ee "G7"dd | "C"c3c | c2 c2 |c3G | c3c | e3e | Hg3c | "C/G"He2 "G7"d2 | "C"Hc3 |]
w: 1.~Oh, sim, Je_sus é_ tão ma-ra-vi-lho-so Que_ Deus lhe_ deu o_ No-me:o San-to deIs-ra-el! E lhe cha_mou de_ To-do-Po-de-ro-so, E_ Deus da_ Paz, Se_nhor, E-ma-nu-el. O Cris-to Rei, quea_ san-ta_ lei cum-priu com go-zo. É Sol di_vi-noe Sal-va-dor fi-el!     Só Cris-to, Sal-va-dor, em tu-doé ven-ce-dor;    Pois pa-de-ceu, na cruz so-freu hu-mi-lha-ção!    Ó vin-de des-fru-tar o seu a-mor;                         Bus-cai, com gran-dear-dor, com de-vo-ção,                 O seu fa-vor.    A-mai, ir-mãos, a quem nos deu per-dão!
w: 2.~Je-sus, Se_nhor as_sim glo-ri-fi-ca-do, Do_ céu no_tan-doo_ po-voen-tre-guea to-doo mal, Quis vir a_qui sal_vá-lo do pe-ca-do. E o fez, po_rém, com_ gran-de dor mo-ral. Cum-priu a lei, sal_vou a_ grei Do tris-tees-ta-do Een-cheu-a_ de fa-vor ce-les-ti-al.
w: 3.~No-tai, ir_mãos, e_ ve-de que bon-da-de! Ja_mais seou_viu deal_guém, queas-sim pro-vas-sea-mar, De-veis ou_vir Je_sus com le-al-da-de, Di_zer que_ Deus por_ Cris-to po-de dar Re-al per-dão, a_ sal-va_ção E li-ber-da-de! Oh! vin-dea_ Cris-toa vi-da con-sa-grar!
W: 
W:
W: 1. Oh, sim, Jesus é tão maravilhoso
W: Que Deus lhe deu o Nome: o Santo de Israel!
W: E lhe chamou de Todo-Poderoso,
W: E Deus da Paz, Senhor, Emanuel.
W: O Cristo Rei, que a santa lei
W:                cumpriu com gozo.
W: É Sol divino e Salvador fiel!
W: 
W:    (Estribilho)
W:    Só Cristo, Salvador, em tudo é vencedor;
W:    Pois padeceu, na cruz sofreu humilhação!
W:    Ó vinde desfrutar o seu amor;                     
W:    Buscai, com grande ardor, 
W:    com devoção, O seu favor.
W:    Amai, irmãos, a quem nos deu perdão!
W: 
W:
W:
W: 2. Jesus, Senhor assim glorificado,
W: Do céu notando o povo entregue a todo o mal,
W: Quis vir aqui salvá-lo do pecado.
W: E o fez, porém, com grande dor moral.
W: Cumpriu a lei, salvou a grei Do triste estado
W: E encheu-a de favor celestial.
W: 
W: 3. Notai, irmãos, e vede que bondade!
W: Jamais se ouviu de alguém, 
W: que assim provasse amar,
W: Deveis ouvir Jesus com lealdade,
W: Dizer que Deus por Cristo pode dar
W: Real perdão, a salvação E liberdade!
W: Oh! vinde a Cristo a vida consagrar!
W: 
W: 





%vocalfont Times-Roman 13.0
